X:674
T:Money7
C:Colin Hume, 2019
L:1/4
M:2/2
R:Reel
S:Colin Hume's website,  colinhume.com  - chords can also be printed below the stave.
Q:1/2=102
%%MIDI chordname 7sus 0 5 7 10
%%MIDI program 71     Clarinet
%%MIDI chordprog 48   String Ensemble 1
%%MIDI chordvol 50
%%MIDI bassprog 43    Contrabass
%%MIDI bassvol 70
%%MIDI gchord ff
K:C
%%text "Money for Old Rope" for dancing - intro and 7 times through
A,C CD | ED C2 | "F"A,C "G"CB, | "C"C4 |
%%MIDI gchord bc
P:A
|: "C"G2 cG | "F"AG FA | "C/E"GF EG | "Dm"FE DA | "C"Gc cd | "Am"c2 AG | "Dm"AD DC | "G"B,C D2 |
P:B
"C"EG GA | "Am"GF EC | "Dm"DF FA | "G7sus"G2- "G7"G2 | "C"c2 G2 | "D7"c2 A2 | "G"Bc "D7"A^F | "G"G4 |
P:C
"C"G2 cG | "Gm"_BA G2 | "Dm"A2 dA | "G7"cB AG | "C"ed cB | "Am"cB Ac | "Gm"_BA GF | "G7sus"G2- "G7"G2 |
P:D
"C"G2 cG | "F"AG F2 | "G"D2 GD | "Am"ED C2 | "F"A,C CD | "C"ED C2 | "F"A,C "G"CB, | "C"C4 :|
%%MIDI program 73     Flute
%%MIDI chordprog 6    Harpsichord
%%MIDI bassprog 6     Harpsichord
%%MIDI gchord fHIg
P:A
|: "C"G2 cG | "F"AG FA | "C/E"GF EG | "Dm"FE DA | "C"Gc cd | "Am"c2 AG | "Dm"AD DC | "G"B,C D2 |
P:B
"C"EG GA | "Am"GF EC | "Dm"DF FA | "G7sus"G2- "G7"G2 | "C"c2 G2 | "D7"c2 A2 | "G"Bc "D7"A^F | "G"G4 |
P:C
"C"G2 cG | "Gm"_BA G2 | "Dm"A2 dA | "G7"cB AG | "C"ed cB | "Am"cB Ac | "Gm"_BA GF | "G7sus"G2- "G7"G2 |
P:D
"C"G2 cG | "F"AG F2 | "G"D2 GD | "Am"ED C2 | "F"A,C CD | "C"ED C2 | "F"A,C "G"CB, | "C"C4 :|
%%MIDI chordname 7sus 0 5 7 10
%%MIDI program 71     Clarinet
%%MIDI chordprog 48   String Ensemble 1
%%MIDI bassprog 43    Contrabass
%%MIDI gchord bc
P:A
|: "C"G2 cG | "F"AG FA | "C/E"GF EG | "Dm"FE DA | "C"Gc cd | "Am"c2 AG | "Dm"AD DC | "G"B,C D2 |
P:B
"C"EG GA | "Am"GF EC | "Dm"DF FA | "G7sus"G2- "G7"G2 | "C"c2 G2 | "D7"c2 A2 | "G"Bc "D7"A^F | "G"G4 |
P:C
"C"G2 cG | "Gm"_BA G2 | "Dm"A2 dA | "G7"cB AG | "C"ed cB | "Am"cB Ac | "Gm"_BA GF | "G7sus"G2- "G7"G2 |
P:D
"C"G2 cG | "F"AG F2 | "G"D2 GD | "Am"ED C2 | "F"A,C CD | "C"ED C2 |1,2 "F"A,C "G"CB, | "C"C4 :|
Q:1/2=70
|3 "F"A,C "G"CB, | "C"C4 |\
%%MIDI gchordoff
Z]

